Numix-GalliumOS/22/devices/media-tape.svg

<?xml version="1.0" encoding="UTF-8" standalone="no"?>
<svg
   xmlns:dc="http://purl.org/dc/elements/1.1/"
   xmlns:cc="http://creativecommons.org/ns#"
   xmlns:rdf="http://www.w3.org/1999/02/22-rdf-syntax-ns#"
   xmlns:svg="http://www.w3.org/2000/svg"
   xmlns="http://www.w3.org/2000/svg"
   xmlns:sodipodi="http://sodipodi.sourceforge.net/DTD/sodipodi-0.dtd"
   xmlns:inkscape="http://www.inkscape.org/namespaces/inkscape"
   viewBox="0 0 22 22"
   id="svg2"
   version="1.1"
   inkscape:version="0.91 r"
   sodipodi:docname="media-tape.svg"
   width="22"
   height="22">
  <metadata
     id="metadata12">
    <rdf:RDF>
      <cc:Work
         rdf:about="">
        <dc:format>image/svg+xml</dc:format>
        <dc:type
           rdf:resource="http://purl.org/dc/dcmitype/StillImage" />
        <dc:title />
      </cc:Work>
    </rdf:RDF>
  </metadata>
  <defs
     id="defs10" />
  <sodipodi:namedview
     pagecolor="#ffffff"
     bordercolor="#666666"
     borderopacity="1"
     objecttolerance="10"
     gridtolerance="10"
     guidetolerance="10"
     inkscape:pageopacity="0"
     inkscape:pageshadow="2"
     inkscape:window-width="1920"
     inkscape:window-height="1056"
     id="namedview8"
     showgrid="true"
     inkscape:zoom="27.812866"
     inkscape:cx="10.836118"
     inkscape:cy="8.8693927"
     inkscape:window-x="0"
     inkscape:window-y="24"
     inkscape:window-maximized="1"
     inkscape:current-layer="svg2">
    <inkscape:grid
       type="xygrid"
       id="grid4151" />
  </sodipodi:namedview>
  <circle
     style="opacity:1;fill:#262626;fill-opacity:1;fill-rule:nonzero;stroke:none;stroke-width:2;stroke-linecap:round;stroke-linejoin:miter;stroke-miterlimit:4;stroke-dasharray:none;stroke-dashoffset:0;stroke-opacity:1"
     id="path4176"
     cx="8"
     cy="11"
     r="3.5" />
  <circle
     r="3"
     cy="11"
     cx="14"
     id="circle4187"
     style="opacity:1;fill:#262626;fill-opacity:1;fill-rule:nonzero;stroke:none;stroke-width:2;stroke-linecap:round;stroke-linejoin:miter;stroke-miterlimit:4;stroke-dasharray:none;stroke-dashoffset:0;stroke-opacity:1" />
  <circle
     style="opacity:1;fill:#ffffff;fill-opacity:1;fill-rule:nonzero;stroke:none;stroke-width:2;stroke-linecap:round;stroke-linejoin:miter;stroke-miterlimit:4;stroke-dasharray:none;stroke-dashoffset:0;stroke-opacity:1"
     id="path4189"
     cx="8"
     cy="11"
     r="1.5" />
  <circle
     r="1.5"
     cy="11"
     cx="14"
     id="circle4191"
     style="opacity:1;fill:#ffffff;fill-opacity:1;fill-rule:nonzero;stroke:none;stroke-width:2;stroke-linecap:round;stroke-linejoin:miter;stroke-miterlimit:4;stroke-dasharray:none;stroke-dashoffset:0;stroke-opacity:1" />
  <path
     style="opacity:1;fill:#838488;fill-opacity:1;fill-rule:nonzero;stroke:none;stroke-width:2;stroke-linecap:round;stroke-linejoin:miter;stroke-miterlimit:4;stroke-dasharray:none;stroke-dashoffset:0;stroke-opacity:1"
     d="M 1.5878906 5 C 1.2620083 5 1 5.2727721 1 5.6113281 L 1 16.388672 C 1 16.727227 1.2620083 17 1.5878906 17 L 20.412109 17 C 20.737992 17 21 16.727227 21 16.388672 L 21 5.6113281 C 21 5.2727721 20.737992 5 20.412109 5 L 1.5878906 5 z M 3.046875 8 L 7 8 L 7 14 L 3.046875 14 L 2.8574219 13.666016 C 2.0150028 12.015877 2.0150028 9.9841244 2.8574219 8.3339844 C 2.9172519 8.2202384 2.9797371 8.1084 3.046875 8 z M 15 8 L 18.953125 8 L 19.142578 8.3339844 C 19.984997 9.9841237 19.984997 12.015876 19.142578 13.666016 C 19.082748 13.779762 19.020263 13.8916 18.953125 14 L 15 14 L 15 8 z "
     id="rect4155" />
  <path
     style="fill:#383838;fill-opacity:1;fill-rule:evenodd;stroke:none;stroke-width:1px;stroke-linecap:butt;stroke-linejoin:miter;stroke-opacity:1"
     d="m 1,8 0.9830508,0 0,-2 L 20,6 20,8 21,8 21,5 1,5 Z"
     id="path4153"
     inkscape:connector-curvature="0"
     sodipodi:nodetypes="ccccccccc" />
  <path
     style="opacity:1;fill:#fffcd3;fill-opacity:1;fill-rule:nonzero;stroke:none;stroke-width:2;stroke-linecap:round;stroke-linejoin:miter;stroke-miterlimit:4;stroke-dasharray:none;stroke-dashoffset:0;stroke-opacity:1"
     d="m 14,8.5 0,5 c 0,0.277 -0.223,0.5 -0.5,0.5 l -5,0 C 8.223,14 8,13.777 8,13.5 l 0,-5 z"
     id="rect4195"
     inkscape:connector-curvature="0"
     sodipodi:nodetypes="csssscc" />
  <rect
     style="opacity:1;fill:#f57979;fill-opacity:1;fill-rule:nonzero;stroke:none;stroke-width:2;stroke-linecap:round;stroke-linejoin:miter;stroke-miterlimit:4;stroke-dasharray:none;stroke-dashoffset:0;stroke-opacity:1"
     id="rect4193"
     width="6"
     height="1"
     x="8"
     y="8"
     rx="0.5"
     ry="0.5" />
  <path
     style="opacity:0.51399997;fill:#bcbcbc;fill-opacity:1;fill-rule:nonzero;stroke:none;stroke-width:2;stroke-linecap:round;stroke-linejoin:miter;stroke-miterlimit:4;stroke-dasharray:none;stroke-dashoffset:0;stroke-opacity:1"
     d="m 17,5 0,3.055664 2,0 L 19,5 Z m 0,9 0,3 2,0 0,-3 z"
     id="rect4171"
     inkscape:connector-curvature="0"
     sodipodi:nodetypes="cccccccccc" />
</svg>

<svg xmlns="http://www.w3.org/2000/svg" viewBox="0 0 22 22">
 <circle cx="8" cy="11" r="3.5" style="fill:#262626;opacity:1;fill-opacity:1;stroke:none;fill-rule:nonzero"/>
 <circle r="3" cy="11" cx="14" style="fill:#262626;opacity:1;fill-opacity:1;stroke:none;fill-rule:nonzero"/>
 <circle cx="8" cy="11" r="1.5" style="fill:#fff;opacity:1;fill-opacity:1;stroke:none;fill-rule:nonzero"/>
 <circle r="1.5" cy="11" cx="14" style="fill:#fff;opacity:1;fill-opacity:1;stroke:none;fill-rule:nonzero"/>
 <path d="m 1.588 5 c -0.326 0 -0.588 0.273 -0.588 0.611 l 0 10.777 c 0 0.339 0.262 0.611 0.588 0.611 l 18.824 0 c 0.326 0 0.588 -0.273 0.588 -0.611 l 0 -10.777 c 0 -0.339 -0.262 -0.611 -0.588 -0.611 l -18.824 0 z m 1.459 3 l 3.953 0 l 0 6 l -3.953 0 l -0.189 -0.334 c -0.842 -1.65 -0.842 -3.682 0 -5.332 c 0.06 -0.114 0.122 -0.226 0.189 -0.334 z m 11.953 0 l 3.953 0 l 0.189 0.334 c 0.842 1.65 0.842 3.682 0 5.332 c -0.06 0.114 -0.122 0.226 -0.189 0.334 l -3.953 0 l 0 -6 z" style="fill:#838488;opacity:1;fill-opacity:1;stroke:none;fill-rule:nonzero"/>
 <path d="m 1 8 0.983 0 0 -2 l 18.02 0 0 2 1 0 0 -3 -20 0" style="fill:#383838;fill-opacity:1;stroke:none;fill-rule:evenodd"/>
 <path d="m 14,8.5 0,5 c 0,0.277 -0.223,0.5 -0.5,0.5 l -5,0 C 8.223,14 8,13.777 8,13.5 l 0,-5 z" style="fill:#fffcd3;opacity:1;fill-opacity:1;stroke:none;fill-rule:nonzero"/>
 <rect width="6" height="1" x="8" y="8" rx="0.5" style="fill:#f57979;opacity:1;fill-opacity:1;stroke:none;fill-rule:nonzero"/>
 <path d="m 17 5 0 3.056 2 0 l 0 -3.056 m -2 9 0 3 2 0 0 -3 z" style="fill:#bcbcbc;opacity:0.514;fill-opacity:1;stroke:none;fill-rule:nonzero"/>
</svg>
